X:36
T:Lord Loudon's Singling of a Troop ThFife.36
B:Thompson, C. & Thompson, S., 'The Compleat Tutor for the Fife', London, c.1765-1780.
S:Digitised by National Library of Scotland at: https://archive.org/details/nlsmusic
Z:vmp Roger Hare, 2019.
M:6/8
L:1/8
Q:3/8=80
K:G
|: G//A//B//c// | d>BG e2 d | d>BG A2 D | d>BG e2 d |  d>BG A2 :|
"^NB1"A |: A>Bc B>cd | e>fg f>ed | g>fe d>BG | AGF G3 :|
N:NB1 single quaver added at start of B music to get pick-up 'right'.

